X:7
%%etbk:tnset id:3,pos:2,rep:3
%%etbk:site1 http://www.thesession.org/tunes/display/541
T: Paddy Canny's Toast
Z: Piano Box Version by Martin Fleischmann (www.boxplayer.ch)
M: 4/4
L: 1/8
R: Reel
K: Gdor
|:!1!G2 !4!cG !5!dGcG|!2!FF !4!AF CFAF|!1!G2 cG dGcG|!4!e!5!f!2!c!1!A !3!d!1!A!2!c!1!A|
!1!G2 cG dGcG|FF AF CFCF|!1!D3!3!G !1!G!2!A!3!B!5!d|!2!cA!5!fA (3cdc AB:||
|:!1!G2 !4!g!5!a !4!g!1!d!3!B!2!A|!1!G2 !4!g!2!e fgeg|!3!f!1!B !2!(3BBB !1!F!2!B!1!D!2!B|!5!f!2!B !2!(3BBB !5!f!3!d!2!c!1!A|
!1!G2 ga gdBA|G2 !4!g!5!a !3!b!1!g!2!a!1!g|!3!~f3 g afge|!5!fdc!1!A !3!B!1!G!2!A!1!F:||

